components/Common/Svg/svgs/bestUserExperience.svg

<svg
  width="90"
  height="90"
  viewBox="0 0 90 90"
  fill="none"
  xmlns="http://www.w3.org/2000/svg"
>
  <circle
    opacity="0.5"
    cx="45"
    cy="45"
    r="45"
    fill="#FFE603"
  ></circle>
  <g clip-path="url(#clip0)">
    <path
      d="M27.2453 32.4658C27.4073 32.4658 27.5667 32.4 27.681 32.285C27.796 32.1707 27.8618 32.0113 27.8618 31.8493C27.8618 31.6874 27.796 31.528 27.681 31.4137C27.5667 31.2987 27.4081 31.2329 27.2453 31.2329C27.0826 31.2329 26.924 31.2987 26.8097 31.4137C26.6947 31.528 26.6289 31.6874 26.6289 31.8493C26.6289 32.0113 26.6947 32.1707 26.8097 32.285C26.924 32.4 27.0834 32.4658 27.2453 32.4658Z"
      fill="#161616"
    ></path>
    <path
      d="M29.218 32.4658C29.3807 32.4658 29.5394 32.4 29.6536 32.285C29.7687 32.1707 29.8344 32.0113 29.8344 31.8493C29.8344 31.6874 29.7687 31.528 29.6536 31.4137C29.5394 31.2987 29.3799 31.2329 29.218 31.2329C29.0561 31.2329 28.8966 31.2987 28.7824 31.4137C28.6673 31.528 28.6016 31.6874 28.6016 31.8493C28.6016 32.0113 28.6673 32.1707 28.7824 32.285C28.8966 32.4 29.0561 32.4658 29.218 32.4658Z"
      fill="#161616"
    ></path>
    <path
      d="M31.1907 32.4658C31.3526 32.4658 31.512 32.4 31.6263 32.285C31.7413 32.1707 31.8071 32.0113 31.8071 31.8493C31.8071 31.6874 31.7413 31.528 31.6263 31.4137C31.512 31.2987 31.3526 31.2329 31.1907 31.2329C31.0287 31.2329 30.8693 31.2987 30.755 31.4137C30.64 31.528 30.5742 31.6874 30.5742 31.8493C30.5742 32.0113 30.64 32.1707 30.755 32.285C30.8693 32.4 31.0287 32.4658 31.1907 32.4658Z"
      fill="#161616"
    ></path>
    <path
      d="M60.1234 37.7082H48.2878C47.1872 37.7082 46.2884 38.5877 46.2571 39.6808H45.6576C44.5374 39.6808 43.6261 40.5921 43.6261 41.7123V46.9137H42.4289V45C42.4289 43.8797 41.5176 42.9685 40.3974 42.9685H29.8768C28.7565 42.9685 27.8453 43.8797 27.8453 45V50.2603C27.8453 51.3806 28.7565 52.2918 29.8768 52.2918H40.3974C41.5176 52.2918 42.4289 51.3806 42.4289 50.2603V48.3466H43.6261V53.548C43.6261 54.6682 44.5374 55.5795 45.6576 55.5795H46.2571C46.2884 56.6726 47.1872 57.5521 48.2878 57.5521H60.1234C61.2437 57.5521 62.1549 56.6408 62.1549 55.5206V54.2055C62.1549 53.0852 61.2437 52.174 60.1234 52.174H48.2878C47.1872 52.174 46.2884 53.0535 46.2571 54.1466H45.6576C45.3276 54.1466 45.059 53.878 45.059 53.548V48.3466H46.2571C46.2884 49.4397 47.1872 50.3192 48.2878 50.3192H60.1234C61.2437 50.3192 62.1549 49.4079 62.1549 48.2877V46.9726C62.1549 45.8523 61.2437 44.9411 60.1234 44.9411H48.2878C47.1872 44.9411 46.2884 45.8206 46.2571 46.9137H45.059V41.7123C45.059 41.3823 45.3276 41.1137 45.6576 41.1137H46.2571C46.2884 42.2068 47.1872 43.0863 48.2878 43.0863H60.1234C61.2437 43.0863 62.1549 42.1751 62.1549 41.0548V39.7397C62.1549 38.6195 61.2437 37.7082 60.1234 37.7082ZM40.996 50.2603C40.996 50.5903 40.7274 50.8589 40.3974 50.8589H29.8768C29.5468 50.8589 29.2782 50.5903 29.2782 50.2603V45C29.2782 44.67 29.5468 44.4014 29.8768 44.4014H40.3974C40.7274 44.4014 40.996 44.67 40.996 45V50.2603ZM47.6891 54.2055C47.6891 53.8755 47.9578 53.6069 48.2878 53.6069H60.1234C60.4534 53.6069 60.722 53.8755 60.722 54.2055V55.5206C60.722 55.8506 60.4534 56.1192 60.1234 56.1192H48.2878C47.9578 56.1192 47.6891 55.8506 47.6891 55.5206V54.2055ZM47.6891 46.9726C47.6891 46.6426 47.9578 46.374 48.2878 46.374H60.1234C60.4534 46.374 60.722 46.6426 60.722 46.9726V48.2877C60.722 48.6177 60.4534 48.8863 60.1234 48.8863H48.2878C47.9578 48.8863 47.6891 48.6177 47.6891 48.2877V46.9726ZM60.722 41.0548C60.722 41.3848 60.4534 41.6534 60.1234 41.6534H48.2878C47.9578 41.6534 47.6891 41.3848 47.6891 41.0548V39.7397C47.6891 39.4097 47.9578 39.1411 48.2878 39.1411H60.1234C60.4534 39.1411 60.722 39.4097 60.722 39.7397V41.0548Z"
      fill="#161616"
      stroke="#161616"
      stroke-width="0.2"
    ></path>
    <path
      d="M62.7534 28.5028H27.2466C25.4012 28.5028 23.9 30.004 23.9 31.8494V58.1507C23.9 59.9961 25.4012 61.4973 27.2466 61.4973H62.7534C64.5988 61.4973 66.1 59.9961 66.1 58.1507V31.8494C66.1 30.004 64.5988 28.5028 62.7534 28.5028ZM27.2466 29.9357H62.7534C63.8085 29.9357 64.6671 30.7943 64.6671 31.8494V33.7631H25.3329V31.8494C25.3329 30.7943 26.1915 29.9357 27.2466 29.9357ZM62.7534 60.0644H27.2466C26.1915 60.0644 25.3329 59.2058 25.3329 58.1507V35.1959H64.6671V58.1507C64.6671 59.2058 63.8085 60.0644 62.7534 60.0644Z"
      fill="#161616"
      stroke="#161616"
      stroke-width="0.2"
    ></path>
  </g>
  <defs>
    <clipPath id="clip0">
      <rect
        width="42"
        height="42"
        fill="white"
        transform="translate(24 24)"
      ></rect>
    </clipPath>
  </defs>
</svg>

<svg width="90" height="90" viewBox="0 0 90 90" fill="none" xmlns="http://www.w3.org/2000/svg"><circle opacity=".5" cx="45" cy="45" r="45" fill="#FFE603"/><g clip-path="url(#a)" fill="#161616"><path d="M27.245 32.466a.62.62 0 0 0 .617-.617.62.62 0 0 0-.617-.616.618.618 0 0 0 0 1.233ZM29.218 32.466a.617.617 0 0 0 0-1.233.619.619 0 0 0-.616.616.619.619 0 0 0 .616.617ZM31.19 32.466a.62.62 0 0 0 .617-.617.62.62 0 0 0-.616-.616.62.62 0 0 0-.617.616.62.62 0 0 0 .617.617Z"/><path d="M60.123 37.708H48.288c-1.1 0-2 .88-2.03 1.973h-.6c-1.12 0-2.032.911-2.032 2.031v5.202H42.43V45c0-1.12-.911-2.032-2.032-2.032h-10.52c-1.12 0-2.032.912-2.032 2.032v5.26c0 1.12.912 2.032 2.032 2.032h10.52c1.12 0 2.032-.911 2.032-2.032v-1.913h1.197v5.201c0 1.12.911 2.032 2.032 2.032h.6a2.034 2.034 0 0 0 2.03 1.972h11.835c1.12 0 2.032-.911 2.032-2.031v-1.316c0-1.12-.911-2.031-2.032-2.031H48.288c-1.1 0-2 .88-2.03 1.973h-.6a.6.6 0 0 1-.599-.599v-5.201h1.198a2.034 2.034 0 0 0 2.03 1.972h11.836c1.12 0 2.032-.911 2.032-2.031v-1.315c0-1.12-.911-2.032-2.032-2.032H48.288c-1.1 0-2 .88-2.03 1.973h-1.199v-5.202a.6.6 0 0 1 .599-.598h.6a2.034 2.034 0 0 0 2.03 1.972h11.835c1.12 0 2.032-.91 2.032-2.031V39.74c0-1.12-.911-2.032-2.032-2.032ZM40.996 50.26a.6.6 0 0 1-.599.599h-10.52a.6.6 0 0 1-.599-.599V45a.6.6 0 0 1 .599-.599h10.52a.6.6 0 0 1 .599.599v5.26Zm6.693 3.946a.6.6 0 0 1 .599-.6h11.835a.6.6 0 0 1 .599.6v1.315a.6.6 0 0 1-.599.598H48.288a.6.6 0 0 1-.599-.598v-1.316Zm0-7.233a.6.6 0 0 1 .599-.599h11.835a.6.6 0 0 1 .599.599v1.315a.6.6 0 0 1-.599.598H48.288a.6.6 0 0 1-.599-.598v-1.315Zm13.033-5.918a.6.6 0 0 1-.599.598H48.288a.6.6 0 0 1-.599-.598V39.74a.6.6 0 0 1 .599-.599h11.835a.6.6 0 0 1 .599.599v1.315Z" stroke="#161616" stroke-width=".2"/><path d="M62.753 28.503H27.247a3.35 3.35 0 0 0-3.347 3.346v26.302a3.35 3.35 0 0 0 3.347 3.346h35.506a3.35 3.35 0 0 0 3.347-3.346V31.849a3.35 3.35 0 0 0-3.347-3.346Zm-35.506 1.433h35.506c1.056 0 1.914.858 1.914 1.913v1.914H25.333V31.85c0-1.055.859-1.913 1.914-1.913Zm35.506 30.128H27.247a1.916 1.916 0 0 1-1.914-1.913V35.196h39.334V58.15a1.916 1.916 0 0 1-1.914 1.913Z" stroke="#161616" stroke-width=".2"/></g><defs><clipPath id="a"><path fill="#fff" transform="translate(24 24)" d="M0 0h42v42H0z"/></clipPath></defs></svg>
